UI/Travel-Transport-Tracking/SVG/navigation_outline_24px.svg

<svg width="24" height="24" viewBox="0 0 24 24" fill="none" xmlns="http://www.w3.org/2000/svg">
<path d="M20.79 19.1L12.89 2.54001C12.8061 2.37621 12.6786 2.23874 12.5216 2.14275C12.3646 2.04676 12.1841 1.99597 12 1.99597C11.816 1.99597 11.6355 2.04676 11.4785 2.14275C11.3215 2.23874 11.194 2.37621 11.11 2.54001L3.21004 19.1C3.05624 19.4052 2.98322 19.7448 2.99795 20.0862C3.01268 20.4277 3.11467 20.7597 3.29419 21.0505C3.4737 21.3413 3.72476 21.5813 4.02339 21.7475C4.32202 21.9138 4.65826 22.0007 5.00004 22C5.19675 21.9987 5.39218 21.9684 5.58004 21.91L11.48 19.41C11.6622 19.3582 11.8506 19.3313 12.04 19.33C12.2327 19.3321 12.4243 19.3589 12.61 19.41L18.5 21.91C18.8718 22.0133 19.2655 22.0069 19.6337 21.8915C20.0019 21.7761 20.3288 21.5566 20.5751 21.2596C20.8214 20.9626 20.9765 20.6007 21.0217 20.2175C21.067 19.8343 21.0004 19.4462 20.83 19.1H20.79ZM13.35 17.57H13.25H13.15C12.7804 17.4345 12.393 17.3537 12 17.33C11.6106 17.3319 11.2234 17.3891 10.85 17.5H10.75H10.66L5.00004 20L12 5.00001L19 20L13.35 17.57ZM12 15L15 16L12 8.00001V15Z" fill="#0F1621"/>
</svg>

<svg xmlns="http://www.w3.org/2000/svg" width="24" height="24" viewBox="0 0 24 24"><rect width="24" height="24" style="fill:none"/><path d="M20.79,19.1,12.89,2.54a1,1,0,0,0-1.78,0L3.21,19.1A2,2,0,0,0,5,22a2,2,0,0,0,.58-.09l5.9-2.5a2.1,2.1,0,0,1,.56-.08,2.24,2.24,0,0,1,.57.08l5.89,2.5a2,2,0,0,0,2.33-2.81Zm-7.44-1.53-.1,0-.1,0A4.05,4.05,0,0,0,12,17.33a4.11,4.11,0,0,0-1.15.17l-.1,0-.09,0L5,20,12,5l7,15ZM12,15l3,1L12,8Z"/></svg>
